svgs/enpass.svg

<svg width="192" height="192" viewBox="0 0 192 192" fill="none" xmlns="http://www.w3.org/2000/svg">
<path fill-rule="evenodd" clip-rule="evenodd" d="M45.264 36.7593C34.6331 36.7593 26.6806 46.52 28.8293 56.9334L44.4751 132.761C47.176 145.85 58.7013 155.24 72.0652 155.24H119.935C133.299 155.24 144.824 145.85 147.525 132.761L163.171 56.9334C165.319 46.52 157.367 36.7593 146.736 36.7593H45.264ZM17.0769 59.3583C13.3921 41.5004 27.0297 24.7593 45.264 24.7593H146.736C164.97 24.7593 178.608 41.5004 174.923 59.3583L159.277 135.186C155.426 153.85 138.992 167.24 119.935 167.24H72.0652C53.008 167.24 36.5739 153.85 32.7227 135.186L17.0769 59.3583ZM61.0042 80.4664C61.0042 61.6074 76.5448 46.5061 95.4822 46.5061C114.42 46.5061 129.96 61.6074 129.96 80.4664C129.96 91.9246 124.204 102.012 115.462 108.145V133.28C115.462 140.025 109.994 145.494 103.249 145.494H88.751C82.0058 145.494 76.5376 140.025 76.5376 133.28V108.844C67.2163 102.794 61.0042 92.3718 61.0042 80.4664ZM95.4822 58.5061C82.9637 58.5061 73.0042 68.4414 73.0042 80.4664C73.0042 88.9333 77.9182 96.3461 85.2291 100.015C87.2573 101.033 88.5376 103.109 88.5376 105.378V133.28C88.5376 133.398 88.6332 133.494 88.751 133.494H103.249C103.367 133.494 103.462 133.398 103.462 133.28V104.831C103.462 102.65 104.646 100.641 106.554 99.5836C113.413 95.7816 117.96 88.6139 117.96 80.4664C117.96 68.4414 108.001 58.5061 95.4822 58.5061Z" fill="black"/>
</svg>

<svg width="192" height="192" fill="none" xmlns="http://www.w3.org/2000/svg"><path fill-rule="evenodd" clip-rule="evenodd" d="M45.264 36.76c-10.63 0-18.583 9.76-16.435 20.173l15.646 75.828c2.701 13.089 14.226 22.479 27.59 22.479h47.87c13.364 0 24.889-9.39 27.59-22.479l15.646-75.828c2.148-10.413-5.804-20.174-16.435-20.174H45.264ZM17.077 59.357C13.392 41.5 27.03 24.76 45.264 24.76h101.472c18.234 0 31.872 16.741 28.187 34.6l-15.646 75.827c-3.851 18.664-20.285 32.054-39.342 32.054h-47.87c-19.057 0-35.491-13.39-39.342-32.054L17.077 59.358Zm43.927 21.108c0-18.859 15.54-33.96 34.478-33.96 18.938 0 34.478 15.101 34.478 33.96 0 11.459-5.756 21.546-14.498 27.679v25.135c0 6.745-5.468 12.214-12.213 12.214H88.751c-6.745 0-12.213-5.469-12.213-12.214v-24.436c-9.322-6.05-15.534-16.472-15.534-28.378Zm34.478-21.96c-12.518 0-22.478 9.935-22.478 21.96 0 8.467 4.914 15.88 12.225 19.549a6.001 6.001 0 0 1 3.309 5.363v27.902c0 .118.095.214.213.214h14.498a.213.213 0 0 0 .213-.214v-28.449a6 6 0 0 1 3.092-5.247c6.859-3.802 11.406-10.97 11.406-19.118 0-12.025-9.959-21.96-22.478-21.96Z" fill="#000"/></svg>
